app/component-library/components/Icons/Icon/assets/user-add.svg

<svg width="24" height="24" viewBox="0 0 24 24" fill="none" xmlns="http://www.w3.org/2000/svg">
<path fill-rule="evenodd" clip-rule="evenodd" d="M16.2812 7C16.2812 9.76142 14.0427 12 11.2812 12C8.51983 12 6.28125 9.76142 6.28125 7C6.28125 4.23858 8.51983 2 11.2812 2C14.0427 2 16.2812 4.23858 16.2812 7ZM2.28125 21.5C2.28125 17.36 6.36125 14 11.3713 14C12.7176 14 13.9967 14.2426 15.1476 14.6778C14.6052 15.3914 14.2833 16.2816 14.2833 17.2471C14.2833 19.5943 16.1861 21.4971 18.5333 21.4971C19.2208 21.4971 19.8701 21.3339 20.4447 21.0441C20.4557 21.1949 20.4613 21.3469 20.4613 21.5C20.4613 21.78 20.2413 22 19.9613 22H2.78125C2.50125 22 2.28125 21.78 2.28125 21.5Z" fill="currentColor"/>
<path fill-rule="evenodd" clip-rule="evenodd" d="M18.5293 21.2422C20.7384 21.2422 22.5293 19.4513 22.5293 17.2422C22.5293 15.033 20.7384 13.2422 18.5293 13.2422C16.3202 13.2422 14.5293 15.033 14.5293 17.2422C14.5293 19.4513 16.3202 21.2422 18.5293 21.2422ZM19.0295 15.7473C19.0295 15.4712 18.8057 15.2473 18.5295 15.2473C18.2534 15.2473 18.0295 15.4712 18.0295 15.7473V16.7073H17.0393C16.7632 16.7073 16.5393 16.9311 16.5393 17.2073C16.5393 17.4834 16.7632 17.7073 17.0393 17.7073H18.0295V18.7373C18.0295 19.0134 18.2534 19.2373 18.5295 19.2373C18.8057 19.2373 19.0295 19.0134 19.0295 18.7373V17.7073H20.0193C20.2954 17.7073 20.5193 17.4834 20.5193 17.2073C20.5193 16.9311 20.2954 16.7073 20.0193 16.7073H19.0295V15.7473Z" fill="currentColor"/>
</svg>

<svg xmlns="http://www.w3.org/2000/svg" width="24" height="24" viewBox="0 0 24 24" fill="none"><path fill="currentColor" fill-rule="evenodd" d="M16.281 7a5 5 0 1 1-10 0 5 5 0 0 1 10 0Zm-14 14.5c0-4.14 4.08-7.5 9.09-7.5 1.347 0 2.626.243 3.777.678a4.25 4.25 0 0 0 5.297 6.366c.01.15.016.303.016.456 0 .28-.22.5-.5.5H2.781c-.28 0-.5-.22-.5-.5Z" clip-rule="evenodd"/><path fill="currentColor" fill-rule="evenodd" d="M18.53 21.242a4 4 0 1 0 0-8 4 4 0 0 0 0 8Zm.5-5.495a.5.5 0 1 0-1 0v.96h-.99a.5.5 0 1 0 0 1h.99v1.03a.5.5 0 0 0 1 0v-1.03h.99a.5.5 0 0 0 0-1h-.99v-.96Z" clip-rule="evenodd"/></svg>
